svg/building/pavilion_line.svg

<?xml version="1.0" encoding="UTF-8"?>
<svg width="24px" height="24px" viewBox="0 0 24 24" version="1.1" xmlns="http://www.w3.org/2000/svg" xmlns:xlink="http://www.w3.org/1999/xlink">
    <title>pavilon_line</title>
    <g id="页面-1" stroke="none" stroke-width="1" fill="none" fill-rule="evenodd">
        <g id="Building" transform="translate(-816.000000, 0.000000)">
            <g id="pavilon_line" transform="translate(816.000000, 0.000000)">
                 <path d="M24,0 L24,24 L0,24 L0,0 L24,0 Z M12.5934901,23.257841 L12.5819402,23.2595131 L12.5108777,23.2950439 L12.4918791,23.2987469 L12.4918791,23.2987469 L12.4767152,23.2950439 L12.4056548,23.2595131 C12.3958229,23.2563662 12.3870493,23.2590235 12.3821421,23.2649074 L12.3780323,23.275831 L12.360941,23.7031097 L12.3658947,23.7234994 L12.3769048,23.7357139 L12.4804777,23.8096931 L12.4953491,23.8136134 L12.4953491,23.8136134 L12.5071152,23.8096931 L12.6106902,23.7357139 L12.6232938,23.7196733 L12.6232938,23.7196733 L12.6266527,23.7031097 L12.609561,23.275831 C12.6075724,23.2657013 12.6010112,23.2592993 12.5934901,23.257841 L12.5934901,23.257841 Z M12.8583906,23.1452862 L12.8445485,23.1473072 L12.6598443,23.2396597 L12.6498822,23.2499052 L12.6498822,23.2499052 L12.6471943,23.2611114 L12.6650943,23.6906389 L12.6699349,23.7034178 L12.6699349,23.7034178 L12.678386,23.7104931 L12.8793402,23.8032389 C12.8914285,23.8068999 12.9022333,23.8029875 12.9078286,23.7952264 L12.9118235,23.7811639 L12.8776777,23.1665331 C12.8752882,23.1545897 12.8674102,23.1470016 12.8583906,23.1452862 L12.8583906,23.1452862 Z M12.1430473,23.1473072 C12.1332178,23.1423925 12.1221763,23.1452606 12.1156365,23.1525954 L12.1099173,23.1665331 L12.0757714,23.7811639 C12.0751323,23.7926639 12.0828099,23.8018602 12.0926481,23.8045676 L12.108256,23.8032389 L12.3092106,23.7104931 L12.3186497,23.7024347 L12.3186497,23.7024347 L12.3225043,23.6906389 L12.340401,23.2611114 L12.337245,23.2485176 L12.337245,23.2485176 L12.3277531,23.2396597 L12.1430473,23.1473072 Z" id="MingCute" fill-rule="nonzero"></path>
                <path d="M11.0968,2.57006 C11.4694,1.82682 12.5303,1.82699 12.9028,2.57006 C13.8475,4.45441 14.8667,5.6659 16.1113,6.47678 C17.365,7.2936 18.939,7.76404 21.1,8.00508 C21.6904,8.07093 22.0786,8.61925 21.984,9.17782 C21.6536,11.1273 20.3192,12.1004 19.1797,12.5552 C19.1193,12.5793 19.0593,12.602 18.9998,12.6235 L18.9998,12.6235 L18.9998,20.0001 L19.9998,20.0001 C20.5521,20.0001 20.9998,20.4478 20.9998,21.0001 C20.9998,21.5524 20.5521,22.0001 19.9998,22.0001 L19.9998,22.0001 L3.99981,22.0001 C3.44752,22.0001 2.99981,21.5524 2.99981,21.0001 C2.99981,20.4478 3.44752,20.0001 3.99981,20.0001 L3.99981,20.0001 L4.99981,20.0001 L4.99981,12.6235 C4.94028,12.602 4.88028,12.5793 4.81996,12.5552 C3.68037,12.1004 2.34598,11.1273 2.01565,9.17782 C1.92102,8.61934 2.30913,8.07094 2.89958,8.00508 C5.06061,7.76404 6.63459,7.2936 7.8883,6.47678 C9.13287,5.6659 10.1521,4.45442 11.0968,2.57006 Z M7.99981,13.0001 L6.99981,13.0001 L6.99981,20.0001 L7.99981,20.0001 L7.99981,13.0001 Z M13.9998,13.0001 L9.99981,13.0001 L9.99981,20.0001 L13.9998,20.0001 L13.9998,13.0001 Z M16.9998,13.0001 L15.9998,13.0001 L15.9998,20.0001 L16.9998,20.0001 L16.9998,13.0001 Z M11.9998,5.02802 C11.1483,6.34832 10.1708,7.37667 8.98007,8.15249 C7.66461,9.00956 6.14883,9.51901 4.37572,9.81873 C4.67758,10.2461 5.10631,10.5161 5.56133,10.6977 C6.01397,10.8783 6.51424,10.9891 7.00338,11.0001 L7.00338,11.0001 L17.0108,10.9998 C17.4952,10.986 17.9896,10.8768 18.4383,10.6977 C18.8933,10.5161 19.322,10.2461 19.6239,9.81873 C17.8508,9.51901 16.335,9.00955 15.0195,8.15249 C13.8288,7.37667 12.8513,6.34832 11.9998,5.02802 Z" id="形状结合" fill="#09244B"></path>
            </g>
        </g>
    </g>
</svg>

<svg xmlns="http://www.w3.org/2000/svg" width="24" height="24"><g fill="none" fill-rule="evenodd"><path d="M24 0v24H0V0h24ZM12.593 23.258l-.011.002-.071.035-.02.004-.014-.004-.071-.035c-.01-.004-.019-.001-.024.005l-.004.01-.017.428.005.02.01.013.104.074.015.004.012-.004.104-.074.012-.016.004-.017-.017-.427c-.002-.01-.009-.017-.017-.018Zm.265-.113-.013.002-.185.093-.01.01-.003.011.018.43.005.012.008.007.201.093c.012.004.023 0 .029-.008l.004-.014-.034-.614c-.003-.012-.01-.02-.02-.022Zm-.715.002a.023.023 0 0 0-.027.006l-.006.014-.034.614c0 .012.007.02.017.024l.015-.002.201-.093.01-.008.004-.011.017-.43-.003-.012-.01-.01-.184-.092Z"/><path fill="#09244B" d="M11.097 2.57a1.01 1.01 0 0 1 1.806 0c.944 1.884 1.964 3.096 3.208 3.907 1.254.817 2.828 1.287 4.989 1.528.59.066.979.614.884 1.173-.33 1.95-1.665 2.922-2.804 3.377l-.18.069V20h1a1 1 0 1 1 0 2H4a1 1 0 1 1 0-2h1v-7.376a5.738 5.738 0 0 1-.18-.069c-1.14-.455-2.474-1.428-2.804-3.377A1.01 1.01 0 0 1 2.9 8.005c2.16-.241 3.735-.711 4.988-1.528 1.245-.811 2.264-2.023 3.209-3.907ZM8 13H7v7h1v-7Zm6 0h-4v7h4v-7Zm3 0h-1v7h1v-7Zm-5-7.972c-.852 1.32-1.83 2.349-3.02 3.124C7.665 9.01 6.15 9.52 4.376 9.82c.302.427.73.697 1.185.879.453.18.953.291 1.442.302h10.008a4.228 4.228 0 0 0 1.427-.302c.455-.182.884-.452 1.186-.88-1.773-.299-3.289-.808-4.604-1.666-1.191-.775-2.169-1.804-3.02-3.124Z"/></g></svg>
